!!!COM:	Bach, Johann Sebastian
!!!CDT:	1685/02/21/-1750/07/28/
!!!OTL@@DE:	Wer nur den lieben Gott l&auml;&szlig;t walten
!!!SCT:	BWV 197/10
!!!PC#:	62
!!!AGN:	chorale
**kern	**kern	**kern	**kern
*ICvox	*ICvox	*ICvox	*ICvox
*Ibass	*Itenor	*Ialto	*Isoprn
*I"Bass	*I"Tenor	*I"Alto	*I"Soprano
*>[A,A,B]	*>[A,A,B]	*>[A,A,B]	*>[A,A,B]
*>norep[A,B]	*>norep[A,B]	*>norep[A,B]	*>norep[A,B]
*>A	*>A	*>A	*>A
*clefF4	*clefGv2	*clefG2	*clefG2
*k[f#c#]	*k[f#c#]	*k[f#c#]	*k[f#c#]
*b:	*b:	*b:	*b:
*M4/4	*M4/4	*M4/4	*M4/4
*met(c)	*met(c)	*met(c)	*met(c)
*MM100	*MM100	*MM100	*MM100
4BB	8BL	8dL	4f#
.	8c#J	8eJ	.
=1	=1	=1	=1
4B	4d	4f#	4b
4A#	4c#	4f#	4cc#
4B	4B	4f#	4dd
4F#	4A#X	8f#L	4cc#
.	.	8eJ	.
=2	=2	=2	=2
8GL	4B	4d	4b
8F#J	.	.	.
4E	8eL	4g	8cc#L
.	8dJ	.	8bJ
4F#	4c#	4f#	4a#
4FF#;	4A#;	4c#;	4f#;
=3	=3	=3	=3
4r	4ry	4ry	4r
4F#	4c#	4f#	4anX
4BB	4d	4f#	4a
4C#	4AnX	4e	4gnX
=4	=4	=4	=4
4D	4A	8eL	4f#
.	.	8dJ	.
8GL	4B	4d	4b
8F#J	.	.	.
4E	8c#L	4g	4b
.	8dJ	.	.
4F#	4e	4f#	4a#
=5	=5	=5	=5
2.BB;	2.d;	2.f#;	2.b;
=:|!	=:|!	=:|!	=:|!
*>B	*>B	*>B	*>B
4F#	4A#	4f#	4cc#
=6	=6	=6	=6
4B	4B	4f#	4dd
8AnXL	4c#	4a	4ee
8GJ	.	.	.
8F#L	4d	4a	4ff#
8EJ	.	.	.
4D	4d	4a	4ff#
=7	=7	=7	=7
4G	4d	4b	4.ee
4A	4c#	4a	.
.	.	.	8dd
4D;	4f#;	4a;	4dd;
4D	4d	8aL	4ff#
.	.	8bJ	.
=8	=8	=8	=8
4C#	4A#	4cc#	4ee
4BB	4B	4f#	4dd
8EL	8BL	8gL	4cc#
8F#J	8A#J	8f#J	.
4G	4B	8f#L	8bL
.	.	8eJ	8cc#J
=9	=9	=9	=9
8F#L	4B	4f#	4dd
8EJ	.	.	.
4F#	4A#	8f#L	4cc#
.	.	8eJ	.
4BB;	4F#;	4d#;	4b;
==	==	==	==
*-	*-	*-	*-
!!!hum2abc: -Q ''
!!!title: @{PC#}. @{OTL@@DE}
!!!YOR1: 371 vierstimmige Choralges&auml;nge von Johann Sebastian Bach, 
!!!YOR2: 4th ed. by Alfred D&ouml;rffel (Leipzig: Breitkopf und H&auml;rtel, 
!!!YOR2: c.1875). 178 pp. Plate "V.A.10".  reprint: J.S. Bach, 371 Four-Part 
!!!YOR4: Chorales (New York: Associated Music Publishers, Inc., c.1940).
!!!SMS: B&H, 4th ed, Alfred D&ouml;rffel, c.1875, plate V.A.10
!!!EED:  Craig Stuart Sapp
!!!EEV:  2009/05/22
